X:130
T:Atholl Highlanders, The
R:jig
Z:id:hn-jig-130
M:6/8
K:A
~e3 ecA|ecA Bcd|~e3 ecA|Bcd cBA|~e3 ecA|ecA Bcd|eae fed|1 cdB Acd:|2 cdB A3||
|:Ace Ace|Adf Adf|Ace Ace|Bcd c2B|Ace Ace|Adf Adf|eae fed|cdB A3:|
|:a2e edc|a2e edc|a2e edc|Bcd efg|a2e edc|a2e edc|eae fed|1 cdB A3:|2 cdB A2B||
|:cAc cAc|dBd dBd|cAc cAc|B=GB BGB|cAc cAc|dBd dBd|eae fed|1 cdB A2B:|2 cdB Acd||
